packages/blockchain-info-components/src/Images/img/tier-gold.svg

<svg fill="none" height="32" viewBox="0 0 32 32" width="32" xmlns="http://www.w3.org/2000/svg" xmlns:xlink="http://www.w3.org/1999/xlink"><mask id="a" height="32" maskUnits="userSpaceOnUse" width="28" x="2" y="0"><path d="m14.0154 1.13403c1.2298-.702702 2.7394-.702701 3.9692 0l10 5.71429c1.2463.71217 2.0154 2.03754 2.0154 3.47298v11.3574c0 1.4354-.7691 2.7608-2.0154 3.473l-10 5.7143c-1.2298.7027-2.7394.7027-3.9692 0l-9.99996-5.7143c-1.2463-.7122-2.01544-2.0376-2.01544-3.473v-11.3574c0-1.43544.76914-2.76081 2.01544-3.47298z" fill="#f5b73d"/></mask><g mask="url(#a)"><path d="m16 0 14 8v16l-14 8-14-8v-16z" fill="#f5b73d"/><path d="m16 32 14-8c-8.6751-4.9572-19.3249-4.9572-28 0z" fill="#05183d" fill-opacity=".1"/><path d="m16-.00000122-14 8.00000122c8.6751 4.9572 19.3249 4.9572 28 0z" fill="#fff" fill-opacity=".4"/></g></svg>

<svg width="32" height="32" viewBox="0 0 32 32" fill="none" xmlns="http://www.w3.org/2000/svg">
<mask id="mask0" mask-type="alpha" maskUnits="userSpaceOnUse" x="2" y="0" width="28" height="32">
<path d="M14.0154 1.13403C15.2452 0.431328 16.7548 0.431329 17.9846 1.13403L27.9846 6.84832C29.2309 7.56049 30 8.88586 30 10.3213V21.6787C30 23.1141 29.2309 24.4395 27.9846 25.1517L17.9846 30.866C16.7548 31.5687 15.2452 31.5687 14.0154 30.866L4.01544 25.1517C2.76914 24.4395 2 23.1141 2 21.6787V10.3213C2 8.88586 2.76914 7.56049 4.01544 6.84832L14.0154 1.13403Z" fill="#F5B73D"/>
</mask>
<g mask="url(#mask0)">
<path d="M16 0L30 8V24L16 32L2 24V8L16 0Z" fill="#F5B73D"/>
<path d="M16 32L30 24C21.3249 19.0428 10.6751 19.0428 2 24L16 32Z" fill="#05183D" fill-opacity="0.1"/>
<path d="M16 -1.22392e-06L2 8C10.6751 12.9572 21.3249 12.9572 30 8L16 -1.22392e-06Z" fill="white" fill-opacity="0.4"/>
</g>
</svg>
